X: 58
M: C|
L: 1/16
K: Am
e2 |\
c3Ae3A c3ee3f | g3de3g d3gB3g |\
a3eg3d e3cd3e | f3de3^g aA3 A2 :|
c3Ad3B e3cf3d | e3a ^gabg aA3 A2 H|]

